dist/images/manual/card3.svg

<svg width="38" height="53" viewBox="0 0 38 53" fill="none" xmlns="http://www.w3.org/2000/svg">
<g filter="url(#filter0_d_213_681)">
<path d="M29.9004 0H7.9541C5.77441 0 3.99902 1.77539 3.99902 3.95508V41.0449C3.99902 43.2246 5.77441 45 7.9541 45H29.9004C32.0801 45 33.8555 43.2246 33.8555 41.0449V3.95508C33.8555 1.77539 32.0801 0 29.9004 0ZM7.9541 2.63672H29.9004C30.6299 2.63672 31.2188 3.22559 31.2188 3.95508V31.8164H6.63574V3.95508C6.63574 3.22559 7.22461 2.63672 7.9541 2.63672ZM29.9004 42.3633H7.9541C7.22461 42.3633 6.63574 41.7744 6.63574 41.0449V34.4531H31.2188V41.0449C31.2188 41.7744 30.6211 42.3633 29.9004 42.3633Z" fill="#5A1404"/>
<path d="M17.6045 37.0898H20.2412V39.7266H17.6045V37.0898Z" fill="#5A1404"/>
<path d="M26.7275 12.665H24.9521C25.0664 12.3135 25.1279 11.9355 25.1279 11.54C25.1279 9.46582 23.4404 7.77832 21.3662 7.77832C20.4346 7.77832 19.582 8.12109 18.9229 8.68359C18.2637 8.12109 17.4111 7.77832 16.4795 7.77832C14.4053 7.77832 12.7178 9.46582 12.7178 11.54C12.7178 11.9268 12.7793 12.3047 12.8936 12.665H11.1182V26.6748H26.7275V12.665ZM21.3662 10.415C21.9814 10.415 22.4912 10.916 22.4912 11.54C22.4912 12.1641 21.9902 12.665 21.3662 12.665H20.2412V11.54C20.2412 10.916 20.751 10.415 21.3662 10.415ZM15.3633 11.54C15.3633 10.9248 15.8643 10.415 16.4883 10.415C17.1123 10.415 17.6133 10.916 17.6133 11.54V12.665H16.4883C15.8643 12.665 15.3633 12.1553 15.3633 11.54ZM13.7549 15.3018H17.6045V24.0381H13.7549V15.3018ZM24.0908 24.0381H20.2412V15.3018H24.0908V24.0381V24.0381Z" fill="$red"/>
</g>
<defs>
<filter id="filter0_d_213_681" x="-0.000976562" y="0" width="37.8564" height="53" filterUnits="userSpaceOnUse" color-interpolation-filters="sRGB">
<feFlood flood-opacity="0" result="BackgroundImageFix"/>
<feColorMatrix in="SourceAlpha" type="matrix" values="0 0 0 0 0 0 0 0 0 0 0 0 0 0 0 0 0 0 127 0" result="hardAlpha"/>
<feOffset dy="4"/>
<feGaussianBlur stdDeviation="2"/>
<feComposite in2="hardAlpha" operator="out"/>
<feColorMatrix type="matrix" values="0 0 0 0 0 0 0 0 0 0 0 0 0 0 0 0 0 0 0.25 0"/>
<feBlend mode="normal" in2="BackgroundImageFix" result="effect1_dropShadow_213_681"/>
<feBlend mode="normal" in="SourceGraphic" in2="effect1_dropShadow_213_681" result="shape"/>
</filter>
</defs>
</svg>

<svg width="38" height="53" fill="none" xmlns="http://www.w3.org/2000/svg"><g filter="url(#a)"><path d="M29.9 0H7.954A3.961 3.961 0 0 0 4 3.955v37.09A3.961 3.961 0 0 0 7.954 45H29.9a3.961 3.961 0 0 0 3.956-3.955V3.955A3.961 3.961 0 0 0 29.9 0zM7.954 2.637H29.9c.73 0 1.319.589 1.319 1.318v27.861H6.636V3.956c0-.73.589-1.32 1.318-1.32zM29.9 42.363H7.954c-.73 0-1.318-.589-1.318-1.318v-6.592h24.583v6.592c0 .73-.598 1.318-1.319 1.318z" fill="#5A1404"/><path d="M17.605 37.09h2.636v2.637h-2.636V37.09z" fill="#5A1404"/><path d="M26.727 12.665h-1.775c.114-.351.176-.73.176-1.125a3.766 3.766 0 0 0-3.762-3.762c-.931 0-1.784.343-2.443.906a3.754 3.754 0 0 0-2.443-.906 3.766 3.766 0 0 0-3.762 3.762c0 .387.061.765.176 1.125h-1.776v14.01h15.61v-14.01zm-5.36-2.25c.614 0 1.124.501 1.124 1.125s-.5 1.125-1.125 1.125h-1.125V11.54c0-.624.51-1.125 1.125-1.125zm-6.004 1.125c0-.615.501-1.125 1.125-1.125s1.125.501 1.125 1.125v1.125h-1.125c-.624 0-1.125-.51-1.125-1.125zm-1.608 3.762h3.85v8.736h-3.85v-8.736zm10.336 8.736h-3.85v-8.736h3.85v8.736z" fill="$red"/></g><defs><filter id="a" x="-.001" y="0" width="37.856" height="53" filterUnits="userSpaceOnUse" color-interpolation-filters="sRGB"><feFlood flood-opacity="0" result="BackgroundImageFix"/><feColorMatrix in="SourceAlpha" values="0 0 0 0 0 0 0 0 0 0 0 0 0 0 0 0 0 0 127 0" result="hardAlpha"/><feOffset dy="4"/><feGaussianBlur stdDeviation="2"/><feComposite in2="hardAlpha" operator="out"/><feColorMatrix values="0 0 0 0 0 0 0 0 0 0 0 0 0 0 0 0 0 0 0.25 0"/><feBlend in2="BackgroundImageFix" result="effect1_dropShadow_213_681"/><feBlend in="SourceGraphic" in2="effect1_dropShadow_213_681" result="shape"/></filter></defs></svg>
